svg/fluentui-system-icons/ic_fluent_code_fs_16_filled.svg

<svg width="16" height="16" viewBox="0 0 16 16" fill="none" xmlns="http://www.w3.org/2000/svg">
<path d="M2.5 3.75H6C6.2 3.75 6.388 3.829 6.53 3.97C6.672 4.111 6.75 4.3 6.75 4.5C6.75 4.7 6.671 4.888 6.53 5.03C6.389 5.172 6.2 5.25 6 5.25H3.25V7.25H5.5C5.7 7.25 5.888 7.329 6.03 7.47C6.172 7.611 6.25 7.8 6.25 8C6.25 8.2 6.171 8.388 6.03 8.53C5.889 8.672 5.7 8.75 5.5 8.75H3.25V11.5C3.25 11.7 3.171 11.888 3.03 12.03C2.889 12.172 2.7 12.25 2.5 12.25C2.3 12.25 2.112 12.171 1.97 12.03C1.828 11.889 1.75 11.7 1.75 11.5V4.5C1.75 4.3 1.829 4.112 1.97 3.97C2.111 3.828 2.3 3.75 2.5 3.75ZM13.25 8.75H14.249C14.449 8.75 14.637 8.829 14.779 8.97C14.921 9.111 14.999 9.3 14.999 9.5C14.999 9.7 14.92 9.888 14.779 10.03C14.638 10.172 14.449 10.25 14.249 10.25H13.249V11C13.249 11.2 13.17 11.388 13.029 11.53C12.888 11.672 12.699 11.75 12.499 11.75C12.299 11.75 12.111 11.671 11.969 11.53C11.827 11.389 11.749 11.2 11.749 11V10.25H10.249V11C10.249 11.2 10.171 11.388 10.029 11.53C9.74505 11.813 9.25105 11.813 8.96805 11.53C8.82605 11.389 8.74805 11.2 8.74805 11V10.25H7.99805C7.79805 10.25 7.61005 10.171 7.46805 10.03C7.32605 9.889 7.24805 9.7 7.24805 9.5C7.24805 9.3 7.32705 9.112 7.46805 8.97C7.60905 8.828 7.79805 8.75 7.99805 8.75H8.74805V7.25H7.99805C7.79805 7.25 7.61005 7.171 7.46805 7.03C7.32605 6.889 7.24805 6.7 7.24805 6.5C7.24805 6.3 7.32705 6.112 7.46805 5.97C7.60905 5.828 7.79805 5.75 7.99805 5.75H8.74805V5C8.74805 4.8 8.82605 4.612 8.96805 4.47C9.25205 4.187 9.74605 4.187 10.029 4.47C10.171 4.611 10.249 4.8 10.249 5V5.75H11.749V5C11.749 4.8 11.827 4.612 11.969 4.47C12.253 4.187 12.747 4.187 13.03 4.47C13.172 4.611 13.25 4.8 13.25 5V5.75H14.25C14.45 5.75 14.638 5.829 14.78 5.97C14.922 6.111 15 6.3 15 6.5C15 6.7 14.921 6.888 14.78 7.03C14.639 7.172 14.45 7.25 14.25 7.25H13.25V8.75ZM11.75 8.75V7.25H10.25V8.75H11.75Z" fill="#212121"/>
</svg>

<svg xmlns="http://www.w3.org/2000/svg" width="16" height="16"><path d="M2.5 3.75H6a.749.749 0 0 1 .53 1.28.743.743 0 0 1-.53.22H3.25v2H5.5a.749.749 0 0 1 .53 1.28.743.743 0 0 1-.53.22H3.25v2.75a.749.749 0 0 1-1.28.53.743.743 0 0 1-.22-.53v-7a.749.749 0 0 1 .75-.75Zm10.75 5h.999a.749.749 0 0 1 .53 1.28.743.743 0 0 1-.53.22h-1V11a.749.749 0 0 1-1.28.53.743.743 0 0 1-.22-.53v-.75h-1.5V11c0 .2-.078.388-.22.53a.769.769 0 0 1-1.061 0 .743.743 0 0 1-.22-.53v-.75h-.75a.749.749 0 0 1-.53-1.28.743.743 0 0 1 .53-.22h.75v-1.5h-.75a.749.749 0 0 1-.53-1.28.743.743 0 0 1 .53-.22h.75V5c0-.2.078-.388.22-.53a.769.769 0 0 1 1.061 0c.142.141.22.33.22.53v.75h1.5V5c0-.2.078-.388.22-.53a.77.77 0 0 1 1.061 0c.142.141.22.33.22.53v.75h1a.749.749 0 0 1 .53 1.28.743.743 0 0 1-.53.22h-1v1.5Zm-1.5 0v-1.5h-1.5v1.5h1.5Z"/></svg>
